X:1
T:Title
%%score { ( 1 4 ) | ( 2 3 ) }
L:1/8
M:6/8
K:Ab
V:1 treble nm="Grand Piano"
V:4 treble 
V:2 bass 
V:3 bass 
V:1
 z3 z2[Q:1/4=100] [CE] | [CE]2 [CE] [_C=D]2 [CF] | [CE]2 A c2 e | [Ge]2 [GB] [GB]2 [Gd] | %4
 d2 c cAF | [CE]2 [CE] [_C=D]2 [CF] | [CE]2 [CA] [Ec]2 [Fd] | c2 E B2 c |[M:5/8] [CA]-[CA]- [CA]3 | %9
[M:1/8] [Ae] |[M:3/4] e6 | e6 | [Fd]2 [DF][FA] [FA][=Ed] | c6[K:bass][K:treble] | e2 ee fe | %15
[M:15/16] [Fd][FA]/-[FA]/[FB] [=Ec]3 [Fd]3/2 |[M:3/4] [Ec][EA] [Ae][FGd] [EGc][DGB] | %17
[M:5/8] [A,CA]-[A,CA]- [A,CA]3 |] %18
V:2
 z3 z2 [A,,A,] | [A,,A,]2 [A,,A,] [A,,A,]2 [A,,A,] | [A,,A,]2[K:treble] [A,CE] [A,EA]2 [A,CA] | %3
 [E,B,]2 [E,E] [E,E]2 [E,E] | [A,FA]2 [A,EA] [EA][CE][A,D] | [A,,A,]2 [A,,A,] [A,,A,]2 [A,,A,] | %6
 [A,,A,]2 [A,,A,] [A,,A,]2 [D,A,] | [E,A,E]2 [E,A,C] [E,G,D]2 [E,G,E] | %8
[M:5/8] [A,,A,]-[A,,A,]- [A,,A,]3 |[M:1/8] [A,C] |[M:3/4] [E,D]2 [F,D] [G,D]2 [E,D] | %11
 [A,CA]2 [B,D] [CE]2 [A,E_G] | [D,D]2 [D,A,][D,D] [D,D][D,A,] | [A,E]4- [A,E][A,EA] | %14
 [A,C_G]2 [A,CG] [A,CG]2 [A,CG] |[M:15/16][K:bass] [D,A,][D,A,]/-[D,A,]/[D,F,] [C,G,]3 [B,,A,]3/2 | %16
[M:3/4] [E,A,][E,C] [E,C]E, E,E, |[M:5/8] A,,-A,,- A,,3 |] %18
V:3
 x6 | x6 | x2[K:treble] x4 | x6 | z3 .A,3 | x6 | x6 | x6 |[M:5/8] x5 |[M:1/8] x |[M:3/4] x6 | x6 | %12
 x6 | x6 | x6 |[M:15/16][K:bass] x15/2 |[M:3/4] x6 |[M:5/8] x5 |] %18
V:4
 x6 | x6 | x6 | x6 | x6 | x6 | x6 | x6 |[M:5/8] x5 |[M:1/8] x |[M:3/4] G2 A B2 [Ge] | z2 G A2 c | %12
 x6 | z2[K:bass] E, A,,2[K:treble] c | x6 |[M:15/16] x15/2 |[M:3/4] x6 |[M:5/8] x5 |] %18

